X:1
T:Horbury, 64.64.664
T:Horbury, 64.64.664
T:John Bacchus Dykes, 1861
T:Public Domain Courtesy of the Cyber Hymnal™
C:John Bacchus Dykes, 1861
Z:Public Domain
Z:Courtesy of the Cyber Hymnal™
%%score ( 1 2 ) ( 3 4 )
L:1/8
Q:1/4=113
M:3/4
K:Eb
V:1 treble 
V:2 treble 
V:3 bass 
V:4 bass 
V:1
 E2 [EF]2 [EG]2 | [EB]3 [EA] [EG]2 | [EG]2 (FG) [EA]2 | [EG]6 | [CG]2 c2 [Ec]2 | %5
 [DB]3 [D=A] [DG]2 | [DG]2 (^FG) [D=A]2 | [DG]4 B2 | [EB]2 [F_d]2 [Ec]2 x | [EB]3 [CB] (AF) | %10
 E2 [EF]2 (GB) | [EB]3 [EA] [EG]2 | [EG]2 (FE) [B,F]2 | [B,E]6 |] %14
V:2
 E2 x4 | x6 | x2 E2 x2 | x6 | x2 (CD) x2 | x6 | x2 D2 x2 | x6 | x7 | x4 D2 | E2 E2 x2 | x6 | %12
 x2 B,2 x2 | x6 |] %14
V:3
 [E,G,]2 [E,A,]2 [E,B,]2 | [E,C]3 [E,C] [E,B,]2 | [B,,B,]2 [B,,B,]2 [B,,B,]2 | [E,B,]6 | %4
 [E,G,]2 (E,F,) (G,=A,) | [G,B,]3 [G,C] [G,B,]2 | [D,B,]2 (=A,B,) [D,C]2 | [G,B,]4 [F,A,]2 | %8
 [E,G,]2 A,3 z F, | [B,,G,]3 [B,,G,] (F,A,) | [E,G,]2 [E,A,]2 (B,_D) | [A,,C]3 [A,,C] [E,B,]2 | %12
 [B,,B,]2 [B,,G,]2 [B,,A,]2 | [E,G,]6 |] %14
V:4
 x6 | x6 | x6 | x6 | x2 C,2 C,2 | x6 | x2 D,2 x2 | x6 | x2 D,2 A,,2 x | x4 B,,2 | x4 E,2 | x6 | %12
 x6 | x6 |] %14

